packages/kaspersky-hexa-ui-icons/src/iconsSVGs/24/YARAScan.svg

<svg width="24" height="24" viewBox="0 0 24 24" fill="none" xmlns="http://www.w3.org/2000/svg">
<path d="M4.00015 15.5C4.55226 15.5002 5.00015 15.9478 5.00015 16.5V18C5.00015 18.5523 5.44787 19 6.00015 19H7.50015C8.05226 19.0002 8.50015 19.4478 8.50015 20C8.50015 20.5522 8.05226 20.9998 7.50015 21H6.00015C4.3433 21 3.00015 19.6569 3.00015 18V16.5C3.00015 15.9477 3.44787 15.5 4.00015 15.5Z" fill="black"/>
<path d="M20.0002 15.5C20.5523 15.5002 21.0002 15.9478 21.0002 16.5V18C21.0002 19.6567 19.6568 20.9998 18.0002 21H16.5002C15.9479 21 15.5002 20.5523 15.5002 20C15.5002 19.4477 15.9479 19 16.5002 19H18.0002C18.5523 18.9998 19.0002 18.5522 19.0002 18V16.5C19.0002 15.9477 19.4479 15.5 20.0002 15.5Z" fill="black"/>
<path fill-rule="evenodd" clip-rule="evenodd" d="M4.45816 9.70898C4.51273 9.72545 4.55904 9.76468 4.58316 9.81836L5.14078 11.0605L5.14273 11.0645C5.15522 11.0942 5.16873 11.135 5.1857 11.1797C5.20274 11.1348 5.21808 11.0943 5.23062 11.0645L5.2316 11.0615L5.7775 9.82031L5.80875 9.77051C5.84605 9.72694 5.90089 9.70032 5.96011 9.7002H7.13004C7.19961 9.7002 7.26458 9.73659 7.30094 9.7959C7.33705 9.85517 7.34025 9.92937 7.30875 9.99121L5.91422 12.7158V14.1006C5.9139 14.2108 5.82428 14.3008 5.71402 14.3008H4.63492C4.52468 14.3008 4.43504 14.2108 4.43472 14.1006V12.7266L3.01676 9.99219C2.98487 9.93045 2.98771 9.85636 3.02359 9.79688C3.05986 9.73722 3.12467 9.70021 3.19449 9.7002H4.40054L4.45816 9.70898Z" fill="black"/>
<path fill-rule="evenodd" clip-rule="evenodd" d="M10.1398 9.70996C10.1978 9.72862 10.2454 9.7736 10.2668 9.83301L11.7785 14.0322C11.8004 14.0934 11.7915 14.1626 11.7541 14.2158C11.7167 14.2685 11.6556 14.3006 11.591 14.3008H10.4562C10.3698 14.3005 10.2925 14.2443 10.2658 14.1621L10.0773 13.5742H8.76578L8.57047 14.1631C8.54325 14.2447 8.46615 14.3008 8.38004 14.3008H7.27652C7.21152 14.3007 7.14984 14.268 7.11246 14.2148C7.07538 14.1617 7.06617 14.0932 7.08804 14.0322L8.6066 9.83203L8.6359 9.77832C8.67293 9.73021 8.73119 9.70043 8.7941 9.7002H10.0783L10.1398 9.70996ZM9.09781 12.1963H9.76383L9.4816 11.2822H9.38004L9.09781 12.1963Z" fill="black"/>
<path fill-rule="evenodd" clip-rule="evenodd" d="M14.2697 9.7002C14.7605 9.7002 15.1859 9.8519 15.4894 10.1396C15.7938 10.4284 15.9582 10.8376 15.9582 11.3164C15.958 11.9642 15.6168 12.455 15.0597 12.6895L15.9474 13.9873C15.9891 14.0484 15.9935 14.1279 15.9591 14.1934C15.9245 14.2587 15.8563 14.3007 15.7824 14.3008H14.4923C14.4242 14.3007 14.3601 14.2653 14.3234 14.208L13.5763 13.0381V14.1006C13.576 14.2107 13.4864 14.3007 13.3761 14.3008H12.2961C12.1859 14.3007 12.0962 14.2107 12.0959 14.1006V9.90039C12.0959 9.78998 12.1857 9.70027 12.2961 9.7002H14.2697ZM13.5763 11.627H14.1681C14.3361 11.6269 14.4658 11.5031 14.466 11.3164C14.466 11.2168 14.4313 11.1478 14.3849 11.1035C14.3372 11.0582 14.2639 11.0264 14.1681 11.0264H13.5763V11.627Z" fill="black"/>
<path fill-rule="evenodd" clip-rule="evenodd" d="M19.3459 9.70996C19.4037 9.72865 19.4514 9.77366 19.4728 9.83301L20.9845 14.0322C21.0064 14.0934 20.9975 14.1626 20.9601 14.2158C20.9227 14.2686 20.8617 14.3006 20.797 14.3008H19.6623C19.5758 14.3006 19.4986 14.2443 19.4718 14.1621L19.2834 13.5742H17.9718L17.7765 14.1631C17.7494 14.2448 17.6722 14.3007 17.5861 14.3008H16.4826C16.4175 14.3008 16.356 14.268 16.3185 14.2148C16.2814 14.1617 16.2722 14.0933 16.2941 14.0322L17.8127 9.83203L17.842 9.77832C17.879 9.73012 17.9371 9.70033 18.0002 9.7002H19.2843L19.3459 9.70996ZM18.3039 12.1963H18.9699L18.6877 11.2822H18.5861L18.3039 12.1963Z" fill="black"/>
<path d="M7.50015 3C8.05226 3.00021 8.50015 3.44784 8.50015 4C8.50015 4.55216 8.05226 4.99979 7.50015 5H6.00015C5.44787 5 5.00015 5.44772 5.00015 6V7.5C5.00015 8.05216 4.55226 8.49979 4.00015 8.5C3.44787 8.5 3.00015 8.05228 3.00015 7.5V6C3.00015 4.34315 4.3433 3 6.00015 3H7.50015Z" fill="black"/>
<path d="M18.1545 3.00391C19.7394 3.0844 21.0002 4.39502 21.0002 6V7.5C21.0002 8.05216 20.5523 8.49979 20.0002 8.5C19.4479 8.5 19.0002 8.05228 19.0002 7.5V6C19.0002 5.48245 18.6066 5.05639 18.1027 5.00488L18.0002 5H16.5002C15.9479 5 15.5002 4.55228 15.5002 4C15.5002 3.44772 15.9479 3 16.5002 3H18.0002L18.1545 3.00391Z" fill="black"/>
</svg>

<svg xmlns="http://www.w3.org/2000/svg" width="24" height="24" fill="none" viewBox="0 0 24 24"><path fill="#000" d="M4 15.5c.552 0 1 .448 1 1V18c0 .552.448 1 1 1h1.5c.552 0 1 .448 1 1s-.448 1-1 1H6c-1.657 0-3-1.343-3-3v-1.5c0-.552.448-1 1-1m16 0c.552 0 1 .448 1 1V18c0 1.657-1.343 3-3 3h-1.5c-.552 0-1-.448-1-1s.448-1 1-1H18c.552 0 1-.448 1-1v-1.5c0-.552.448-1 1-1"/><path fill="#000" fill-rule="evenodd" d="M4.458 9.709a.2.2 0 0 1 .125.109l.558 1.242.002.004c.012.03.026.071.043.115.017-.045.032-.085.045-.115l.001-.003.546-1.241.031-.05a.2.2 0 0 1 .151-.07h1.17a.201.201 0 0 1 .171.096.201.201 0 0 1 .008.195l-1.394 2.725v1.385a.201.201 0 0 1-.2.2h-1.08a.201.201 0 0 1-.2-.2v-1.374L3.017 9.993a.201.201 0 0 1 .178-.292h1.206zm5.682.001a.2.2 0 0 1 .127.123l1.512 4.199a.202.202 0 0 1-.024.184.202.202 0 0 1-.163.085h-1.135a.202.202 0 0 1-.19-.139l-.188-.588H8.766l-.195.589a.202.202 0 0 1-.19.138H7.277a.202.202 0 0 1-.164-.086.201.201 0 0 1-.024-.183l1.518-4.2.029-.054a.201.201 0 0 1 .158-.078h1.284zm-1.042 2.486h.666l-.282-.914H9.38zM14.27 9.7c.491 0 .916.152 1.22.439.304.289.469.698.469 1.177 0 .648-.341 1.139-.898 1.373l.888 1.298a.201.201 0 0 1-.165.314h-1.29a.202.202 0 0 1-.169-.093l-.747-1.17v1.063a.201.201 0 0 1-.2.2h-1.08a.201.201 0 0 1-.2-.2V9.9a.2.2 0 0 1 .2-.2zm-.693 1.927h.592c.168 0 .298-.124.298-.311 0-.1-.035-.169-.081-.213-.048-.045-.121-.077-.217-.077h-.592zm5.769-1.917a.201.201 0 0 1 .127.123l1.512 4.199a.202.202 0 0 1-.024.184.201.201 0 0 1-.163.085h-1.135a.202.202 0 0 1-.19-.139l-.188-.588h-1.312l-.195.589a.202.202 0 0 1-.19.138h-1.103a.201.201 0 0 1-.188-.269l1.519-4.2.029-.054a.2.2 0 0 1 .158-.078h1.284zm-1.042 2.486h.666l-.282-.914h-.102z" clip-rule="evenodd"/><path fill="#000" d="M7.5 3c.552 0 1 .448 1 1s-.448 1-1 1H6c-.552 0-1 .448-1 1v1.5c0 .552-.448 1-1 1s-1-.448-1-1V6c0-1.657 1.343-3 3-3zm10.655.004c1.585.08 2.846 1.391 2.846 2.996v1.5c0 .552-.448 1-1 1s-1-.448-1-1V6c0-.517-.394-.944-.897-.995L18 5h-1.5c-.552 0-1-.448-1-1s.448-1 1-1H18z"/></svg>
